X:12014
T:Log Cabin
R:March
C:Trad.
O:USA
Z:Paul Hardy's Session Tunebook 2015 (see www.paulhardy.net). Creative Commons cc by-nc-sa licenced.
M:4/4
L:1/4
Q:1/4=160
K:G
GB|"G"d2 "D7"ed|"G"dB2G|"C"AG GE|"G"D2-"D7"D2|"G"GG GB|"Em"dd dB|"Am"A3d|"D7"ed Bc|
"G"d2 "D7"ed|"G"dB2G|"C"AG GE|"G"D2 "D7"GA|"G"Bd "Em"dB|"Am"Ac "D7"BA|"G"G3/2A/2 "D7"BA|"G7"GG AB|
"C"c2 c2|ee2e|"G"dd dB|"D7"d2 BA|"G"GG GB|"Em"dd dB|"Am"A3d|"D7"ed Bc|
"G"d2 "D7"ed|"G"dB2G|"C"AG GE|"G"D2 "D7"GA|"G"Bd "Em"dB|"Am"Ac "D7"BA|"G"G3/2A/2 "D7"BA|"G"G2|]

